X: 14392
T: Galway Bay
R: hornpipe
M: 4/4
K: Gdorian
GA|:B2 Bc d2d^f|g2dg gabg|fdbg fdcd|BAGA GFD2|
~G3A BABG|~F3 G AGFD|GABc dcBA|B2 G2 G2:|
|:g2dg gaba|gfd_e dAGA|B2Bc dcde|fdcB AGF2|
BfdB ABcA|BfdB cd_ec|d2ga bagf|d2 g2 g2 z2:|

